images/icons/PBS-filter.svg

<?xml version="1.0" encoding="UTF-8" standalone="no"?>
<svg width="256px" height="256px" viewBox="0 0 256 256" version="1.1" xmlns="http://www.w3.org/2000/svg" xmlns:xlink="http://www.w3.org/1999/xlink">
    <!-- Generator: Sketch 39.1 (31720) - http://www.bohemiancoding.com/sketch -->
    <title>PBS-filter</title>
    <desc>Created with Sketch.</desc>
    <defs></defs>
    <g id="Page-1" stroke="none" stroke-width="1" fill="none" fill-rule="evenodd">
        <g id="PBS-filter">
            <path d="M163.078465,64 L16.9965765,64 C15.89481,64 15,64.8913093 15,65.9907951 L15,82.0092049 C15,83.1017876 15.8938977,84 16.9965765,84 L164.496257,84 C162.890685,80.3252265 162,76.2666286 162,72 C162,69.2295813 162.375531,66.5468725 163.078465,64 Z M220.921535,64 L238.003424,64 C239.106102,64 240,64.8982124 240,65.9907951 L240,82.0092049 C240,83.1086907 239.10519,84 238.003424,84 L219.503743,84 C221.109315,80.3252265 222,76.2666286 222,72 C222,69.2295813 221.624469,66.5468725 220.921535,64 Z" id="Combined-Shape" fill="#222222"></path>
            <path d="M50.0784654,117 L16.9965765,117 C15.89481,117 15,117.891309 15,118.990795 L15,135.009205 C15,136.101788 15.8938977,137 16.9965765,137 L51.4962575,137 C49.8906851,133.325227 49,129.266629 49,125 C49,122.229581 49.3755306,119.546873 50.0784654,117 Z M107.921535,117 L238.003424,117 C239.106102,117 240,117.898212 240,118.990795 L240,135.009205 C240,136.108691 239.10519,137 238.003424,137 L106.503743,137 C108.109315,133.325227 109,129.266629 109,125 C109,122.229581 108.624469,119.546873 107.921535,117 Z" id="Combined-Shape-Copy" fill="#222222"></path>
            <path d="M119.078465,175 L16.9965765,175 C15.89481,175 15,175.891309 15,176.990795 L15,193.009205 C15,194.101788 15.8938977,195 16.9965765,195 L120.496257,195 C118.890685,191.325227 118,187.266629 118,183 C118,180.229581 118.375531,177.546873 119.078465,175 Z M176.921535,175 L238.003424,175 C239.106102,175 240,175.898212 240,176.990795 L240,193.009205 C240,194.108691 239.10519,195 238.003424,195 L175.503743,195 C177.109315,191.325227 178,187.266629 178,183 C178,180.229581 177.624469,177.546873 176.921535,175 Z" id="Combined-Shape-Copy-2" fill="#222222"></path>
            <circle id="Oval-Copy" stroke="#222222" stroke-width="15" cx="192" cy="72" r="23"></circle>
            <circle id="Oval-Copy-3" stroke="#222222" stroke-width="15" cx="79" cy="125" r="23"></circle>
            <circle id="Oval-Copy-4" stroke="#222222" stroke-width="15" cx="148" cy="183" r="23"></circle>
        </g>
    </g>
</svg>

<svg width="256" height="256" viewBox="0 0 256 256" xmlns="http://www.w3.org/2000/svg"><title>PBS-filter</title><g fill="none" fill-rule="evenodd"><path d="M163.078 64H16.997A1.994 1.994 0 0 0 15 65.99v16.02c0 1.092.894 1.99 1.997 1.99h147.5A29.899 29.899 0 0 1 162 72c0-2.77.376-5.453 1.078-8zm57.844 0h17.081c1.103 0 1.997.898 1.997 1.99v16.02c0 1.099-.895 1.99-1.997 1.99h-18.5A29.899 29.899 0 0 0 222 72c0-2.77-.376-5.453-1.078-8zM50.078 117H16.997A1.994 1.994 0 0 0 15 118.99v16.02c0 1.092.894 1.99 1.997 1.99h34.5A29.899 29.899 0 0 1 49 125c0-2.77.376-5.453 1.078-8zm57.844 0h130.081c1.103 0 1.997.898 1.997 1.99v16.02c0 1.099-.895 1.99-1.997 1.99h-131.5A29.899 29.899 0 0 0 109 125c0-2.77-.376-5.453-1.078-8zM119.078 175H16.997A1.994 1.994 0 0 0 15 176.99v16.02c0 1.092.894 1.99 1.997 1.99h103.5A29.899 29.899 0 0 1 118 183c0-2.77.376-5.453 1.078-8zm57.844 0h61.081c1.103 0 1.997.898 1.997 1.99v16.02c0 1.099-.895 1.99-1.997 1.99h-62.5A29.899 29.899 0 0 0 178 183c0-2.77-.376-5.453-1.078-8z" fill="#222"/><circle stroke="#222" stroke-width="15" cx="192" cy="72" r="23"/><circle stroke="#222" stroke-width="15" cx="79" cy="125" r="23"/><circle stroke="#222" stroke-width="15" cx="148" cy="183" r="23"/></g></svg>
